svg/color/go.svg

<svg width="64" height="64" viewBox="0 0 64 64" fill="none" xmlns="http://www.w3.org/2000/svg">
<path d="M0 32C0 14.3269 14.3269 0 32 0C49.6731 0 64 14.3269 64 32C64 49.6731 49.6731 64 32 64C14.3269 64 0 49.6731 0 32Z" fill="#131313"/>
<path d="M32 0.5C49.397 0.5 63.5 14.603 63.5 32C63.5 49.397 49.397 63.5 32 63.5C14.603 63.5 0.5 49.397 0.5 32C0.5 14.603 14.603 0.5 32 0.5Z" stroke="#070B14" stroke-opacity="0.15"/>
<path d="M43.9487 24.1211C43.5696 19.8721 39.9303 18.4115 35.3054 17.9752L35.3244 12.0379L31.742 12.0569L31.7609 17.8045C30.8132 17.8045 29.8086 17.8045 28.842 17.8234V12L25.2217 12.019L25.2406 17.9183C24.4635 17.9373 18 17.9373 18 17.9373V21.7121H22.587L22.568 40.6809L18.5497 40.6999L18.5118 45.0248C18.5118 45.0248 24.1981 45.0058 25.0321 45.0058L25.0511 50.981L28.6145 51L28.6524 45.0627C29.638 45.0817 30.5858 45.1007 31.5145 45.1196L31.4956 51H35.1159L35.0969 45.0627C41.1245 44.7592 45.3703 43.2607 45.9389 37.608C46.3938 33.0365 44.2709 30.9878 40.8401 30.1532C42.9251 29.091 44.233 27.232 43.9487 24.1211ZM38.8499 36.8302C38.812 41.2879 31.2681 40.7378 28.823 40.7189L28.804 32.8089C31.2492 32.8278 38.8878 32.1829 38.8499 36.8302ZM37.2577 25.6766C37.2198 29.7359 30.9269 29.2237 28.9178 29.2048L28.8988 22.0345C30.908 22.0345 37.2767 21.4465 37.2577 25.6766Z" fill="white"/>
</svg>

<svg xmlns="http://www.w3.org/2000/svg" width="64" height="64" fill="none" viewBox="0 0 64 64"><path fill="#131313" d="M0 32C0 14.327 14.327 0 32 0s32 14.327 32 32-14.327 32-32 32S0 49.673 0 32"/><path stroke="#070B14" stroke-opacity=".15" d="M32 .5C49.397.5 63.5 14.603 63.5 32S49.397 63.5 32 63.5.5 49.397.5 32 14.603.5 32 .5Z"/><path fill="#fff" d="M43.949 24.121c-.38-4.249-4.019-5.71-8.644-6.146l.02-5.937-3.583.019.019 5.748c-.948 0-1.952 0-2.919.018V12l-3.62.019.019 5.9c-.777.018-7.241.018-7.241.018v3.775h4.587l-.019 18.969-4.018.019-.038 4.325s5.686-.02 6.52-.02l.02 5.976 3.563.019.037-5.937 2.863.057-.02 5.88h3.62l-.018-5.937c6.027-.304 10.273-1.802 10.842-7.455.455-4.571-1.668-6.62-5.099-7.455 2.085-1.062 3.393-2.921 3.109-6.032m-5.1 12.71c-.037 4.457-7.58 3.907-10.026 3.888l-.019-7.91c2.445.019 10.084-.626 10.046 4.021m-1.591-11.154c-.038 4.059-6.331 3.547-8.34 3.528l-.02-7.17c2.01 0 8.379-.588 8.36 3.642"/></svg>
